images/reddit.svg

<svg width="24" height="24" viewBox="0 0 24 24" fill="none" xmlns="http://www.w3.org/2000/svg">
<path fill-rule="evenodd" clip-rule="evenodd" d="M24 12C24 18.6274 18.6274 24 12 24C5.37258 24 0 18.6274 0 12C0 5.37258 5.37258 0 12 0C18.6274 0 24 5.37258 24 12ZM18.2456 10.2456C19.214 10.2456 20 11.0316 20 12C20 12.7158 19.5649 13.3333 18.9895 13.614C19.0175 13.7825 19.0316 13.9509 19.0316 14.1333C19.0316 16.8281 15.9018 19.0035 12.0281 19.0035C8.15438 19.0035 5.02456 16.8281 5.02456 14.1333C5.02456 13.9509 5.03859 13.7684 5.06666 13.6C4.44912 13.3193 4.02807 12.7158 4.02807 12C4.02807 11.0316 4.81403 10.2456 5.78245 10.2456C6.24561 10.2456 6.6807 10.4421 6.98947 10.7369C8.19649 9.85264 9.86666 9.30528 11.7333 9.24914L12.6175 5.06668C12.6456 4.98247 12.6877 4.91229 12.7579 4.87019C12.8281 4.82808 12.9123 4.81405 12.9965 4.82808L15.9018 5.44563C16.0982 5.02457 16.5193 4.74387 17.0105 4.74387C17.6982 4.74387 18.2596 5.30528 18.2596 5.993C18.2596 6.68071 17.6982 7.24212 17.0105 7.24212C16.3368 7.24212 15.7895 6.70878 15.7614 6.04913L13.1649 5.50177L12.3649 9.24914C14.1895 9.31931 15.8456 9.88071 17.0386 10.7369C17.3474 10.4281 17.7684 10.2456 18.2456 10.2456ZM9.24912 12C8.5614 12 8 12.5614 8 13.2491C8 13.9369 8.5614 14.4983 9.24912 14.4983C9.93684 14.4983 10.4982 13.9369 10.4982 13.2491C10.4982 12.5614 9.93684 12 9.24912 12ZM12.014 17.4597C12.4912 17.4597 14.1193 17.4035 14.9754 16.5474C15.1018 16.4211 15.1018 16.2246 15.0035 16.0842C14.8772 15.9579 14.6667 15.9579 14.5403 16.0842C13.993 16.6176 12.8561 16.814 12.0281 16.814C11.2 16.814 10.0491 16.6176 9.51579 16.0842C9.38947 15.9579 9.17894 15.9579 9.05263 16.0842C8.92631 16.2105 8.92631 16.4211 9.05263 16.5474C9.89473 17.3895 11.5368 17.4597 12.014 17.4597ZM13.5018 13.2491C13.5018 13.9369 14.0632 14.4983 14.7509 14.4983C15.4386 14.4983 16 13.9369 16 13.2491C16 12.5614 15.4386 12 14.7509 12C14.0632 12 13.5018 12.5614 13.5018 13.2491Z" fill="white"/>
</svg>

<svg fill="#FF4500" role="img" viewBox="0 0 24 24" xmlns="http://www.w3.org/2000/svg"><title>Reddit</title><path d="M12 0A12 12 0 0 0 0 12a12 12 0 0 0 12 12 12 12 0 0 0 12-12A12 12 0 0 0 12 0zm5.01 4.744c.688 0 1.25.561 1.25 1.249a1.25 1.25 0 0 1-2.498.056l-2.597-.547-.8 3.747c1.824.07 3.48.632 4.674 1.488.308-.309.73-.491 1.207-.491.968 0 1.754.786 1.754 1.754 0 .716-.435 1.333-1.01 1.614a3.111 3.111 0 0 1 .042.52c0 2.694-3.13 4.87-7.004 4.87-3.874 0-7.004-2.176-7.004-4.87 0-.183.015-.366.043-.534A1.748 1.748 0 0 1 4.028 12c0-.968.786-1.754 1.754-1.754.463 0 .898.196 1.207.49 1.207-.883 2.878-1.43 4.744-1.487l.885-4.182a.342.342 0 0 1 .14-.197.35.35 0 0 1 .238-.042l2.906.617a1.214 1.214 0 0 1 1.108-.701zM9.25 12C8.561 12 8 12.562 8 13.25c0 .687.561 1.248 1.25 1.248.687 0 1.248-.561 1.248-1.249 0-.688-.561-1.249-1.249-1.249zm5.5 0c-.687 0-1.248.561-1.248 1.25 0 .687.561 1.248 1.249 1.248.688 0 1.249-.561 1.249-1.249 0-.687-.562-1.249-1.25-1.249zm-5.466 3.99a.327.327 0 0 0-.231.094.33.33 0 0 0 0 .463c.842.842 2.484.913 2.961.913.477 0 2.105-.056 2.961-.913a.361.361 0 0 0 .029-.463.33.33 0 0 0-.464 0c-.547.533-1.684.73-2.512.73-.828 0-1.979-.196-2.512-.73a.326.326 0 0 0-.232-.095z"/></svg>
